img/star-empty.svg

<?xml version="1.0" encoding="UTF-8"?>
<svg width="19px" height="18px" viewBox="0 0 19 18" version="1.1" xmlns="http://www.w3.org/2000/svg" xmlns:xlink="http://www.w3.org/1999/xlink">
    <!-- Generator: Sketch 41.1 (35376) - http://www.bohemiancoding.com/sketch -->
    <title>star-empty</title>
    <desc>Created with Sketch.</desc>
    <defs></defs>
    <g id="Page-3" stroke="none" stroke-width="1" fill="none" fill-rule="evenodd">
        <path d="M12.6897473,11.0624929 L13.4933197,15.7611592 L9.28572536,13.5401744 L5.06697033,15.7611592 L5.88170344,11.0624929 L2.4665208,7.74775683 L7.17634784,7.05579172 L9.28572536,2.79239378 L11.3951029,7.05579172 L16.1049299,7.74775683 L12.6897473,11.0624929 Z M18.5714507,7.07811317 C18.5714507,6.74329134 18.2143074,6.60936261 17.94645,6.5647197 L12.3437647,5.74998659 L9.83260101,0.671855535 C9.73215446,0.459801711 9.54242209,0.214265704 9.28572536,0.214265704 C9.02902862,0.214265704 8.83929625,0.459801711 8.7388497,0.671855535 L6.227686,5.74998659 L0.625000745,6.5647197 C0.345982555,6.60936261 0,6.74329134 0,7.07811317 C0,7.27900627 0.145089459,7.46873864 0.27901819,7.6138281 L4.34152303,11.5647257 L3.38170046,17.1450895 C3.37053973,17.2232146 3.359379,17.2901789 3.359379,17.368304 C3.359379,17.6584829 3.50446846,17.9263404 3.82812956,17.9263404 C3.98437975,17.9263404 4.12946921,17.8705368 4.27455867,17.7924117 L9.28572536,15.1584799 L14.296892,17.7924117 C14.4308208,17.8705368 14.587071,17.9263404 14.7433211,17.9263404 C15.0669822,17.9263404 15.200911,17.6696437 15.200911,17.368304 C15.200911,17.2901789 15.200911,17.2232146 15.1897503,17.1450895 L14.2299277,11.5647257 L18.2812718,7.6138281 C18.4263613,7.46873864 18.5714507,7.27900627 18.5714507,7.07811317 Z" id="star-empty" fill="#000000"></path>
    </g>
</svg>

<svg width="19" height="18" viewBox="0 0 19 18" xmlns="http://www.w3.org/2000/svg">
  <title>
    star-empty
  </title>
  <path d="M12.69 11.062l.803 4.7-4.207-2.222-4.219 2.221.815-4.699-3.415-3.314 4.71-.692 2.109-4.264 2.11 4.264 4.709.692-3.415 3.314zm5.881-3.984c0-.335-.357-.469-.625-.513l-5.602-.815L9.833.672c-.1-.212-.29-.458-.547-.458-.257 0-.447.246-.547.458L6.228 5.75l-5.603.815C.346 6.609 0 6.743 0 7.078c0 .201.145.39.279.536l4.063 3.95-.96 5.581c-.011.078-.023.145-.023.223 0 .29.145.558.47.558.155 0 .3-.055.446-.134l5.01-2.634 5.012 2.634c.134.079.29.134.446.134.324 0 .458-.256.458-.558 0-.078 0-.145-.011-.223l-.96-5.58 4.051-3.951c.145-.145.29-.335.29-.536z" fill="#000" fill-rule="evenodd"/>
</svg>
